X:1
T:[ID 4-11v]
T:[ID 4-11v]
T:Bezeichnung standardisiert: Menuet [mit Trio] 1. Menuet [mit Trio] Viol.
T:Urheber unbekannt Datum in der hier transkribierten schriftlichen Quelle: 1776 - 1791
C:Urheber unbekannt
C:Datum in der hier transkribierten schriftlichen Quelle: 1776 - 1791
%%score 1 2
L:1/8
M:3/4
K:D
V:1 treble 
V:2 treble 
V:1
 d4 A2 | F>D F>A d2 | B2{a} g2{f} e2 |{d} c4 d2 | (f/g/)a .a.a (a/g/)f | (e/f/)g .g.g g(f/e/) | %6
 fa g2"^fehlt" f2 |"^1)" x6 :: A3 Ac>e | .g2 .e2 .c2 |"^Con Flauto" A3 Ad>f | .a2 .f2 d2 | %12
!f! (g/a/)b .b.b (b/a/)g | (f/g/)a .a.a a(g/f) | e2 d2 c2 |{c} d6 :| %16
[M:3/4]"^Trio" !fermata!FG A2 A2 | (3Bcd{B} A4 | A2 (AG)(GF) | E(F{F)} G4 | FG A2 A2 | %21
 (3Bcd{B} A4 | G2 G2 F2 |{F} E6 :: CD E2 E2 | (3GAB{G} F4 | B2 (3BAG (3FED | (3CB,A, A,4 | %28
 (FG) A2 A2 | (3Bcd{B} A4 | G2 F2 E2 |{E} D6 :| %32
V:2
 !fermata!d4 A2 | F>D F>A d2 | B2{a} g2{f} e2 |{d} c4 d2 | (d/e/)f ff (f/e/)d | %5
 (c/d/)e ee e(d/c/) | df e2 d2 |{d} c6 :: A3 AAc | e6 | F3 FBd | f6 | (g/a/)b bb (b/a/)g | %13
 (f/g/)a aa a(g/f) | e2 d2 c2 |{c} d6 :|[M:3/4]"^Trio"!p! DE F2 F2 | G2{G} F4 | F2 (FE)(ED) | %19
 CD{D} E4 | (DE) F2 F2 | G2{G} F4 | E2 E2 D2 |{D} C6 :: A,B, C2 C2 | (3CDE{E} D4 | B2 (3BAG (3FED | %27
 (3CB,A, A,4 | DE F2 F2 | G2{G} F4 | E2 D2 C2 |{C} D6 :| %32

